assets/icons/download.svg

<?xml version="1.0" encoding="UTF-8" standalone="no"?>
<svg
   width="20"
   height="20"
   viewBox="0 0 20 20"
   fill="none"
   version="1.1"
   id="svg13000"
   sodipodi:docname="download.svg"
   inkscape:version="1.2.2 (b0a84865, 2022-12-01)"
   xmlns:inkscape="http://www.inkscape.org/namespaces/inkscape"
   xmlns:sodipodi="http://sodipodi.sourceforge.net/DTD/sodipodi-0.dtd"
   xmlns="http://www.w3.org/2000/svg"
   xmlns:svg="http://www.w3.org/2000/svg">
  <defs
     id="defs13004" />
  <sodipodi:namedview
     id="namedview13002"
     pagecolor="#505050"
     bordercolor="#eeeeee"
     borderopacity="1"
     inkscape:showpageshadow="0"
     inkscape:pageopacity="0"
     inkscape:pagecheckerboard="0"
     inkscape:deskcolor="#505050"
     showgrid="false"
     inkscape:zoom="9.8333333"
     inkscape:cx="9.9661017"
     inkscape:cy="9.9661017"
     inkscape:window-width="1309"
     inkscape:window-height="456"
     inkscape:window-x="0"
     inkscape:window-y="25"
     inkscape:window-maximized="0"
     inkscape:current-layer="svg13000" />
  <g
     id="download"
     transform="translate(-2,-2)">
    <path
       id="Vector (Stroke)"
       fill-rule="evenodd"
       clip-rule="evenodd"
       d="m 3,14 c 0.55228,0 1,0.4477 1,1 v 4 c 0,0.2652 0.10536,0.5196 0.29289,0.7071 C 4.48043,19.8946 4.73478,20 5,20 h 14 c 0.2652,0 0.5196,-0.1054 0.7071,-0.2929 C 19.8946,19.5196 20,19.2652 20,19 v -4 c 0,-0.5523 0.4477,-1 1,-1 0.5523,0 1,0.4477 1,1 v 4 c 0,0.7956 -0.3161,1.5587 -0.8787,2.1213 C 20.5587,21.6839 19.7957,22 19,22 H 5 C 4.20435,22 3.44129,21.6839 2.87868,21.1213 2.31607,20.5587 2,19.7956 2,19 v -4 c 0,-0.5523 0.44772,-1 1,-1 z"
       fill="#ffffff" />
    <path
       id="Vector (Stroke)_2"
       fill-rule="evenodd"
       clip-rule="evenodd"
       d="m 6.29289,9.29289 c 0.39053,-0.39052 1.02369,-0.39052 1.41422,0 L 12,13.5858 16.2929,9.29289 c 0.3905,-0.39052 1.0237,-0.39052 1.4142,0 0.3905,0.39053 0.3905,1.02371 0,1.41421 l -5,5 c -0.3905,0.3905 -1.0237,0.3905 -1.4142,0 l -5.00001,-5 c -0.39052,-0.3905 -0.39052,-1.02368 0,-1.41421 z"
       fill="#ffffff" />
    <path
       id="Vector (Stroke)_3"
       fill-rule="evenodd"
       clip-rule="evenodd"
       d="m 12,2 c 0.5523,0 1,0.44772 1,1 v 12 c 0,0.5523 -0.4477,1 -1,1 -0.5523,0 -1,-0.4477 -1,-1 V 3 c 0,-0.55228 0.4477,-1 1,-1 z"
       fill="#ffffff" />
  </g>
</svg>

<svg width="24" height="24" viewBox="0 0 24 24" fill="none" xmlns="http://www.w3.org/2000/svg">
<g id="download">
<path id="Vector (Stroke)" fill-rule="evenodd" clip-rule="evenodd" d="M3 14C3.55228 14 4 14.4477 4 15V19C4 19.2652 4.10536 19.5196 4.29289 19.7071C4.48043 19.8946 4.73478 20 5 20H19C19.2652 20 19.5196 19.8946 19.7071 19.7071C19.8946 19.5196 20 19.2652 20 19V15C20 14.4477 20.4477 14 21 14C21.5523 14 22 14.4477 22 15V19C22 19.7956 21.6839 20.5587 21.1213 21.1213C20.5587 21.6839 19.7957 22 19 22H5C4.20435 22 3.44129 21.6839 2.87868 21.1213C2.31607 20.5587 2 19.7956 2 19V15C2 14.4477 2.44772 14 3 14Z" fill="white"/>
<path id="Vector (Stroke)_2" fill-rule="evenodd" clip-rule="evenodd" d="M6.29289 9.29289C6.68342 8.90237 7.31658 8.90237 7.70711 9.29289L12 13.5858L16.2929 9.29289C16.6834 8.90237 17.3166 8.90237 17.7071 9.29289C18.0976 9.68342 18.0976 10.3166 17.7071 10.7071L12.7071 15.7071C12.3166 16.0976 11.6834 16.0976 11.2929 15.7071L6.29289 10.7071C5.90237 10.3166 5.90237 9.68342 6.29289 9.29289Z" fill="white"/>
<path id="Vector (Stroke)_3" fill-rule="evenodd" clip-rule="evenodd" d="M12 2C12.5523 2 13 2.44772 13 3V15C13 15.5523 12.5523 16 12 16C11.4477 16 11 15.5523 11 15V3C11 2.44772 11.4477 2 12 2Z" fill="white"/>
</g>
</svg>
